!!!!SEGMENT: pl-wtm--r-110-n_noskowski-zygmunt--majeste-les-francais.krn
!!!cenid: 18xx:2293
!!!COM: Noskowski, Zygmunt
!!!COM-rismID: pe106604
!!!CDT: 1846/05/02-1909/07/23
!!!CNT: Polish
!!!OTL: Majeste les Francais
!!!PDT:
!!!AGN: Secular
!!!SMS-siglum: PL-Wtm
!!!SMS-shelfmark: R 110/N
!!!SMS-shelfwork: W
!!!SMS-variant:
!!!SMS-altvar:
!!!NIFC-rismSourceID: 1001101669
!!!NIFC-islandoraID:
!!!URL-pdf-islandora:
!!!URL-scan:
!!!ONB-nifc:
!!!AIN: 2 piano 1 vox
!!!key:
**kern	**kern	**dynam	**kern	**text	**text	**text	**text
*part3	*part2	*part2	*part1	*part1	*part1	*part1	*part1
*staff3	*staff2	*	*staff1	*staff1	*staff1	*staff1	*staff1
*Ipiano	*Ipiano	*	*Ivox	*	*	*	*
*I"Piano	*I"Piano	*	*I"Voce	*	*	*	*
*mI"Pianoforte	*mI"Pianoforte	*	*	*	*	*	*
*I'	*I'	*	*I'	*	*	*	*
*mI'pf	*mI'pf	*	*mI'v	*	*	*	*
*clefF4	*clefG2	*	*clefG2	*	*	*	*
*k[b-e-a-d-]	*k[b-e-a-d-]	*	*k[b-e-a-d-]	*	*	*	*
*A-:	*A-:	*	*A-:	*	*	*	*
*M4/4	*M4/4	*	*M4/4	*	*	*	*
*met(c)	*met(c)	*	*met(c)	*	*	*	*
*mmet(c)	*mmet(c)	*	*mmet(c)	*	*	*	*
=1	=1	=1	=1	=1	=1	=1	=1
!!!OMD:
!!!OMD-mod: Moderato maestoso
!	!	!	!LO:TX:a:t=Moderato maestoso:mod=	!	!	!	!
2E-^^\	2e-^^/ 2ee-	f	1r	.	.	.	.
4CC^^/ 4C	4G^^/ 4c 4e-	.	.	.	.	.	.
8.E-\L	8.e-/L 8.ee-	.	.	.	.	.	.
16E-\Jk	16e-/Jk 16ee-	.	.	.	.	.	.
=2	=2	=2	=2	=2	=2	=2	=2
2E-^^\	2e-^^/ 2ee-	.	1r	.	.	.	.
4AAA-^^/ 4AA-	4G^^/ 4c 4e-	.	.	.	.	.	.
8.E-\L	8.e-/L 8.ee-	.	.	.	.	.	.
16E-\Jk	16e-/Jk 16ee-	.	.	.	.	.	.
=3	=3	=3	=3	=3	=3	=3	=3
2E-^^\	2e-^^/ 2ee-	.	1r	.	.	.	.
4EE-^^/ 4E-	4G^^/ 4B- 4e-	.	.	.	.	.	.
8.BBB-/L 8.BB-	8.A-/L 8.d- 8.f	.	.	.	.	.	.
16BBB-/Jk 16BB-	16A-/Jk 16d- 16f	.	.	.	.	.	.
=4	=4	=4	=4	=4	=4	=4	=4
4EE-/ 4E-	4G/ 4d- 4g	.	2r	.	.	.	.
4EE-/ 4E-	4A-/ 4d- 4f	.	.	.	.	.	.
4EE-/ 4E-	4G/ 4d- 4e-	.	4r	.	.	.	.
8C/L	8c/L	.	8c/	1. Ma-	2. Pa-	3. Aux	.
8E-/J	8e-/J	.	8e-/	-jes-	-ris	plus	.
=5	=5	=5	=5	=5	=5	=5	=5
*	*^	*	*	*	*	*	*
2CC/ 2C	4.a-/	2A-\ 2e-	.	(4.a-/	-té	vous	hum-	.
.	8b-/	.	.	8b-/)	.	.	.	.
4BBB-/ 4BB-	4B-/ 4d- 4g	2ryy	.	4g/	les	a	-bles	.
4AAA-/ 4AA-	4c/ 4e- 4a-	.	.	4a-/	Fran,-	re-	au-	.
*	*v	*v	*	*	*	*	*	*
=6	=6	=6	=6	=6	=6	=6	=6
4GGG/ 4GG	4B-/ 4e- 4b-	.	(4b-\	-çais	-çu.	-tel	.
4EEE-/ 4EE-	8c/L 8e- 8g 8cc	.	8cc\L	.	.	.	.
.	8d-/J 8dd-	.	8dd-\J)	.	.	.	.
4AAA-/ 4AA-	4c/ 4e- 4a- 4cc	.	(4cc\	ha-	La	des	.
8EE-/L 8E-	4B-/ 4e- 4g 4b-	.	4b-\)	-bi-	.	è-	.
8DD-/J 8D-	.	.	.	.	.	.	.
=7	=7	=7	=7	=7	=7	=7	=7
*	*^	*	*	*	*	*	*
2CC/ 2C	4.e-/ 4.a- 4.ee-	2ryy	.	(4.ee-\	-tant	vil-	-gli-	.
.	8c/ 8cc	.	.	8cc\)	vo-	-le	.	.
4DD-/ 4D-	4B-/ 4f 4b-	4ryy	.	4b-\	-tre	sans	-ses	.
4EE-/ 4E-	8f/L 8a-	4d-\	.	(8a-/L	Em-	pa-	de	.
.	8g/J 8b-	.	.	8b-/J)	.	.	.	.
*	*v	*v	*	*	*	*	*	*
=8	=8	=8	=8	=8	=8	=8	=8
2AAA-/ 2AA-	4d-/ 4f 4a- 4dd-	.	4dd-\	-pi-	-reil-	Fran-	.
.	4c/ 4e- 4a- 4cc	.	4cc\	-re	-les,	-ce	.
4CC/ 4C	4r	.	4r	.	.	.	.
4FF/ 4F	4A-/ 4c 4f 4a-	.	8a-/	Et	Com-	Le	.
.	.	.	8a-/	tous	-me	chant	.
=9	=9	=9	=9	=9	=9	=9	=9
2EE-/ 2E-	4.B-/ 4.e- 4.g 4.b-	.	4b-\	leur	une	du	.
.	.	.	8b-\	pro-	ro	„Te	.
.	8G/ 8B- 8e-	.	8e-/	-té-	yau-	De-	.
4DD-/ 4D-	4A-/ 4d- 4f	.	4f/	-gés,	-té	-um”	.
4BBB-/ 4BB-	4G/ 4d- 4e- 4g	.	8g/	in-	ri-	re-	.
.	.	.	8g/	-cli-	-che	-mer-	.
=10	=10	=10	=10	=10	=10	=10	=10
2CC/ 2C	4A-/ 4c 4e- 4a-	.	4a-/	-nés	d'en-	-eie	.
.	8G/L 8g	.	8g/	sous	-chan-	mant	.
.	8A-/J 8a-	.	8a-/	vos	-te-	du	.
4AAA-/ 4AA-	4c/ 4e- 4a- 4cc	.	4cc\	pas	-mento,	coeur	.
4CC/ 4C	8G/L 8e- 8g	.	8g/	En	A	S'est	.
.	8A-/J 8a-	.	8a-/	ce	dé-	fait	.
=11	=11	=11	=11	=11	=11	=11	=11
2GGG/ 2GG	4B-/ 4e- 4b-	.	4b-\	jour	-plo-	en-	.
.	4B-/ 4e-	.	8e-/	so-	-yé	-ten-	.
.	.	.	8e-/	-lén-	pour	-dre	.
4BBB-/ 4BB-	4A-/ 4d- 4f	.	4f/	-nel,	vous	com-	.
8EE-/L 8E-	4B-/ 4e- 4g	.	8g/	ont	ses	-me	.
8DD-/J 8D-	.	.	8g/	a	plus	un	.
=12	=12	=12	=12	=12	=12	=12	=12
*	*^	*	*	*	*	*	*
4CC/ 4C	4A-/ 4e- 4a-	4ryy	.	4a-/	coeur	ra-	hymne	.
4GGG/ 4GG	8b-/L	4d-\ 4e-	.	8b-\	de	-res	d'es-	.
.	8dd-/J	.	.	8dd-\	Vous	mer-	-pé-	.
4AAA-/ 4AA-	4c/ 4e- 4a- 4cc	4ryy	.	4cc\	di-	-veil-	-ran-	.
4FFF/ 4FF	4dn/ 4a- 4cc	4c\	.	4cc\	-rè	-les	ce	.
*	*v	*v	*	*	*	*	*	*
=13	=13	=13	=13	=13	=13	=13	=13
2GGG/ 2GG	4.B-/ 4.e- 4.g 4.b-	.	(4.b-\	Leur	Vous	Pre-	.
.	8c/ 8cc	.	8cc\)	bon-	.	-sa-	.
8GG/L 8G	4B-/ 4e- 4b-	.	4b-\	-heur	a	-geant	.
8FF/ 8F	.	.	.	.	.	.	.
8EE-/ 8E-	4e-/ 4g 4b- 4ee-	.	4ee-\	de	don-	les	.
8DDn/J 8Dn	.	.	.	.	.	.	.
=14	=14	=14	=14	=14	=14	=14	=14
2CC/ 2C	4.G/ 4.c 4.e- 4.g	.	(4.g/	Vous	-né	longs	.
.	8A-/ 8a-	.	8a-/)	.	son	.	.
8CC/L 8C	4G/	.	4g/	voir	coeur	joures	.
8BBB-/ 8BB-	.	.	.	.	.	.	.
8AAA-/ 8AA-	8c/L 8e- 8a-	.	(8a-/L	ren-	et	de	.
8GGG/J 8GG	8B-/J 8e- 8b-	.	8b-/J)	.	.	.	.
=15	=15	=15	=15	=15	=15	=15	=15
2FFF/ 2FF	2c/ 2e- 2a- 2cc	.	4.cc\	-trér	ses	regne	.
.	.	.	8cc\	dans	em-	et	.
2BBB-\ 2BB-	2Dn/ 2A- 2B- 2dn	.	4.dn/	vos'	-bres-	de	.
.	.	.	8d/	E-	-se-	bon-	.
=	=	=	=	=	=	=	=
4EEE-\ 4EE-	2E-/ 2G 2B- 2e-	.	2e-/	-tats	-ments.	-heur.	.
8.BBB-/L 8.BB-	.	.	.	.	.	.	.
16BBB-/Jk 16BB-	.	.	.	.	.	.	.
4EE-/	4r	.	4r	.	.	.	.
=16!|:	=16!|:	=16!|:	=16!|:	=16!|:	=16!|:	=16!|:	=16!|:
8G\L	8g/L	.	8g/L	C'est	Un	{Nous	Que
8F\J	8f/J	.	8f/J	.	.	.	.
=17	=17	=17	=17	=17	=17	=17	=17
4EE-/ 4E-	4e-/	.	(4e-/	que	fa-	l'a-	le
4F\ 4G 4d-	4f/ 4g 4dd-	.	4dd-\)	.	.	.	.
4E-\ 4G 4c	4e-/ 4g 4cc	.	(4cc\	pen-	-na-	-vous	bril-
4EE-/ 4E-	4d-/ 4g 4b-	.	4b-\)	.	-ti-	.	.
=18	=18	=18	=18	=18	=18	=18	=18
*	*^	*	*	*	*	*	*
4.AAA-/ 4.AA-	4.c/ 4.a- 4.cc	2ryy	.	4.cc\	-dant	-que,	{en-	-lant
8BBB-/ 8BB-	8G/ 8d- 8e- 8g	.	.	8a-/	le	un	-ton-	so-
4CC/ 4C	4A-/ 4c 4e- 4a-	4ryy	.	4a-/	cour	fou,	-né	-leil,
4DD-/ 4D-	8e-/L 8g	4A-\	.	(8g/L	de	mau-	ce	em-
.	8d-/J 8f	.	.	8f/J)	.	.	.	.
*	*v	*v	*	*	*	*	*	*
=19	=19	=19	=19	=19	=19	=19	=19
2.EE-/ 2.E-	4G/ 4d- 4e-	.	4e-/	vo-	-dit	can-	-blè-
.	8d-/L 8e- 8g	.	8g/L	-tre	par	-ti-	-me
.	8c/J 8f 8a-	.	8a-/J	.	.	.	.
.	4B-/ 4g 4b-	.	4b-\	long	tout	-que	du
4EE-/ 4E-	8e-/L 8g 8cc	.	(8cc\L	vo-	le	de	Roy-
.	8d-/J 8g 8b-	.	8b-\J)	.	.	.	.
=20	=20	=20	=20	=20	=20	=20	=20
2AA-/ 2E-	4B-/ 4d- 4g	.	4g/	-ya-	mon-	gra-	-au-
.	4c/ 4e- 4a-	.	4a-/	-ge,	-de	-ce!	-me,
2r	8r	.	8r	.	.	.	.
.	8G/L 8g	.	8g/	Dans	O	U-	En-
.	8A-/ 8a-	.	8a-/	l'â-	sa	-nis	-tou-
.	8B-/J 8b-	.	8b-\	-me	le-	à	-re
=21	=21	=21	=21	=21	=21	=21	=21
*	*	*	*^	*	*	*	*
2FFF/ 2FF	4.c/ 4.f 4.a- 4.cc	.	4.cc\	2ryy	de	-ver	vos	vo-
.	8A-/ 8a-	.	8f/	.	nous	sur	su-	-tre
4BBB-/ 4BB-	4G/ 4d- 4f 4g	.	4g/	4ryy	tous,	vous	-jet	front
4AAA-/ 4AA-	4A-/ 4c 4f 4a-	.	8a-/	4a-\	vo-	sa	vos	d'un
.	.	.	8a-/	.	-tre	.	.	é-
=22	=22	=22	=22	=22	=22	=22	=22	=22
*	*^	*	*	*	*	*	*	*
4GGG/ 4GG	4B-/ 4d- 4f 4b-	4ryy	.	8b-\	4b-/	cul-	cri-	{bien-	-clat
.	.	.	.	8b-\	.	-te	-mi-	-ai-	.
4CC/ 4C	8a-/L	4B-\ 4en	.	8a-/	4ryy	est	-nel-	-més	sans
.	8g/J	.	.	8g/	.	res-	-le	en-	pa-
4DD-/ 4D-	4A-/ 4f	2ryy	.	4f/	4ryy	-té	main	-fants,	-reil,
8CC/L 8C	8A-/L 8f 8a-	.	.	8a-/L	(8a-\	Com-	Mais	Nous	Car
8BBB-/J 8BB-	8B-/J 8g 8b-	.	.	8b-/J	8b-\)	-me	.	a	.
*	*v	*v	*	*	*	*	*	*	*
*	*	*	*v	*v	*	*	*	*
=23	=23	=23	=23	=23	=23	=23	=23
2AAA-/ 2AA-	4.c/ 4.f 4.cc	.	4cc\	ce-	Dieu	vous	vous
.	.	.	8cc\	-lui	fit	dit	ne
.	8A-/ 8f	.	8f/	du	a-	comme	qou-
4DD-/ 4D-	4G/ 4B- 4e- 4g	.	4g/	Roi	-vor-	eux:	-rer-
4CC/ 4C	4A-/ 4c 4f 4a-	.	8a-/	ma-	-ter	„Fils	-nez,
.	.	.	8a-/	-qua-	cet	d'u-	que
=24	=24	=24	=24	=24	=24	=24	=24
4BBB-/ 4BB-	4B-/ 4d- 4f 4b-	.	8b-\	-ni-	at	-ne	pour
.	.	.	8b-\	-me	ten-	il-	le
4FFF/ 4FF	8d-/L 8a- 8dd-	.	8dd-\	et	-tat	-lus-	bian
.	8c/J 8cc	.	8cc\	si	im	-tre	de
4GGG/ 4GG	4B-/ 4e- 4b-	.	4b-\	sa-	mon-	ra-	l'hom-
4EE-/ 4E-	8A-/L 8f 8a-	.	8a-/L	-ge	-de	-ce,	-me
.	8B-/J 8g 8b-	.	8b-/J	.	.	.	.
=25	=25	=25	=25	=25	=25	=25	=25
2AAA-/ 2AA-	4.c/ 4.e- 4.a- 4.cc	.	(4.cc\	Qu'é-	Pour	{Que	Et
.	8d-/ 8dd-	.	8dd-\)	-vo-	lais-	le	.
8AA-\L 8A-	4c/ 4e- 4a- 4cc	.	4cc\	-que	-ser	Dieu	vo-
8GG\J 8G	.	.	.	.	.	.	.
8FF/L 8F	4e-/ 4a- 4cc 4ee-	.	4ee-\	le	vi-	juste	-tre
8EE-/J 8E-	.	.	.	.	.	.	.
=26	=26	=26	=26	=26	=26	=26	=26
2FF/ 2F	4.A-/ 4.d- 4.a-	.	(4.a-/	grand	-vre	et	no-
.	8B-/ 8b-	.	8b-/)	.	en	bon	-ble
8FF/L 8F	4A-/ 4d- 4a-	.	4a-/	nom	vous	vous	creur,
8EE-/ 8E-	.	.	.	.	.	.	.
8DD-/ 8D-	8f/L 8a- 8dd-	.	(8dd-\L	de	l'es-	con-	c'est
8CC/J 8C	8e-/J 8a- 8ee-	.	8ee-\J)	.	.	.	.
=27	=27	=27	=27	=27	=27	=27	=27
2BBB-/ 2BB-	2f\ 2a- 2dd- 2ff	.	4.ff\	Vo-	-poir	-ser-	no-
.	.	.	8ff\	-tre	du	-ve	-tre
2EE-/ 2E-	2G/ 2d- 2e- 2g	.	4.g/	Ma-	gen-	aux	doux
.	.	.	8g/	-jes-	-re	Per-	so-
=28	=28	=28	=28	=28	=28	=28	=28
4AAA-/ 4AA-	[2A-/ [2c [2e- [2a-	.	[2a-/	-té.	hu-	-sans!	-leil.
8.EE-/L	.	.	.	.	.	.	.
16EE-/Jk	.	.	.	.	.	.	.
8AA-/	8A-/] 8c] 8e-] 8a-]	.	8a-/]	.	-main.	.	.
8r	8r	.	8r	.	.	.	.
=:|!	=:|!	=:|!	=:|!	=:|!	=:|!	=:|!	=:|!
*-	*-	*-	*-	*-	*-	*-	*-
!!!system-decoration: s1[(s2,s3)]
!!!filter-modern: sic -sq | autostem -r |modori -m 
!!!ENC: Marcin Jachim
!!!END: 2021-05-31
!!!ENC: Wojeciech Jakubiak
!!!END: 2021-06-10
!!!ENC-modern: Leszek Kubiak
!!!END-modern: 2022-08-16
!!!YEC: Copyright 2022 Narodowy Instytut Fryderyka Chopina (https://polishscores.org)
!!!YEM: Licence CC BY 4.0 (https://creativecommons.org/licenses/by/4.0)
